public/StyledComponents.svg

<svg width="50" height="50" viewBox="0 0 50 50" fill="none" xmlns="http://www.w3.org/2000/svg">
<path d="M12.5382 24.0082C12.343 26.4674 14.5034 28.2788 15.9778 28.2788C17.4543 28.2098 23.2046 23.3641 23.2046 23.3641C25.9091 19.9437 25.9208 18.4227 25.9208 17.2273C25.6952 11.9497 16.08 19.9881 12.5382 24.0082ZM36.3239 21.9654C37.6291 19.2031 35.8732 16.1351 32.0536 18.8299C29.0184 20.759 25.0891 24.7275 23.2085 26.2811C22.3363 28.0428 24.5473 32.8778 28.0512 30.325C32.1928 27.316 35.2172 24.4866 36.3239 21.9654ZM39.8786 5.25528L40.7197 0H50V9.59317L46.5989 9.63375L42.5038 23.5043C42.7586 28.3996 40.2762 28.4793 39.9591 30.7255C39.1621 36.371 32.8487 40.9903 30.435 40.9903C28.8251 40.9437 27.6482 39.0985 27.2529 37.4907C31.792 32.4702 37.8959 28.5248 37.8959 28.5248C38.2771 25.8845 37.4393 25.0438 40.2566 22.7939L42.9448 8.65933C40.6489 7.14326 39.5777 7.1668 39.8786 5.25528ZM21.7647 28.6635C24.1183 33.4061 27.5192 33.5297 32.792 27.4917C32.9172 28.0499 33.0545 28.6348 32.8027 30.0391C22.0766 39.6328 11.974 48.9697 8.89892 50H0V47.6132C1.44727 45.6062 13.325 35.8095 21.7647 28.6635ZM37.617 37.8461C37.1341 41.9512 33.3914 45.5433 28.3902 50H12.5402L25.9023 38.7447C28.209 43.9942 32.3061 43.2337 37.6171 37.8461H37.617ZM18.8731 28.5283L0 44.6147V34.1782L11.1064 25.1367C11.7006 28.5021 15.3403 31.4654 18.8731 28.5285V28.5283Z" fill="#1096E1"/>
</svg>

<svg xmlns="http://www.w3.org/2000/svg" width="50" height="50" fill="none" xmlns:v="https://vecta.io/nano"><path d="M12.538 24.008c-.195 2.459 1.965 4.271 3.44 4.271 1.476-.069 7.227-4.915 7.227-4.915 2.704-3.42 2.716-4.941 2.716-6.137-.226-5.278-9.841 2.761-13.383 6.781zm23.786-2.043c1.305-2.762-.451-5.83-4.27-3.136-3.035 1.929-6.965 5.898-8.845 7.451-.872 1.762 1.339 6.597 4.843 4.044 4.142-3.009 7.166-5.838 8.273-8.36zm3.555-16.71L40.72 0H50v9.593l-3.401.041-4.095 13.871c.255 4.895-2.228 4.975-2.545 7.221-.797 5.646-7.11 10.265-9.524 10.265-1.61-.047-2.787-1.892-3.182-3.5 4.539-5.02 10.643-8.966 10.643-8.966.381-2.64-.457-3.481 2.361-5.731l2.688-14.135c-2.296-1.516-3.367-1.493-3.066-3.404zM21.765 28.664c2.354 4.743 5.755 4.866 11.027-1.172.125.558.262 1.143.011 2.547C22.077 39.633 11.974 48.97 8.899 50H0v-2.387c1.447-2.007 13.325-11.804 21.765-18.95zm15.852 9.183c-.483 4.105-4.226 7.697-9.227 12.154H12.54l13.362-11.255c2.307 5.249 6.404 4.489 11.715-.899h0zm-18.744-9.318L0 44.615V34.178l11.106-9.041c.594 3.365 4.234 6.329 7.767 3.392h0z" fill="#1096e1"/></svg>
